src/index/components/cabinet/NrfxPresaleModal/assets/promo.svg

<svg width="228" height="120" viewBox="0 0 228 120" fill="none" xmlns="http://www.w3.org/2000/svg">
    <path fill-rule="evenodd" clip-rule="evenodd" d="M113 0L137 36.0003L128.146 49.2822L106.458 9.81324L113 0Z" fill="url(#paint0_linear)"/>
    <path fill-rule="evenodd" clip-rule="evenodd" d="M99.2699 20.5957L137 36.0004L128.146 49.2823L89.0003 36.0004L99.2699 20.5957Z" fill="url(#paint1_linear)"/>
    <path fill-rule="evenodd" clip-rule="evenodd" d="M113 72L88.9999 35.9997L99.2696 20.5949L122.298 58.0528L113 72Z" fill="url(#paint2_linear)"/>
    <path d="M6.13313 119V101.2L19.9331 119H24.9731V91.1199H19.0131V108.44L5.65313 91.1199H0.173126V119H6.13313Z" fill="white"/>
    <path d="M28.8075 108.92C28.8075 111.88 29.7675 114.36 31.6475 116.4C33.5675 118.4 35.9675 119.4 38.8075 119.4C41.9675 119.4 44.1675 118.44 45.4875 116.48C45.7675 117.32 46.3675 118.04 47.2875 118.64C48.1275 119.12 49.2475 119.36 50.5675 119.36C51.7275 119.36 52.6075 119.24 53.2475 119.04V114.08C52.8875 114.12 52.5275 114.16 52.2475 114.16C51.1675 114.16 50.7675 113.52 50.7675 111.92V98.8399H44.8075V101.48C44.2075 99.7199 41.8475 98.4799 38.8075 98.4799C35.9675 98.4799 33.5675 99.4799 31.6475 101.52C29.7675 103.52 28.8075 106 28.8075 108.92ZM39.8875 113.96C38.4475 113.96 37.2475 113.48 36.2475 112.52C35.2475 111.52 34.7675 110.32 34.7675 108.92C34.7675 107.52 35.2475 106.32 36.2475 105.36C37.2475 104.36 38.4475 103.88 39.8875 103.88C41.3675 103.88 42.6075 104.36 43.6075 105.36C44.6475 106.32 45.1675 107.52 45.1675 108.92C45.1675 110.32 44.6475 111.52 43.6075 112.52C42.6075 113.48 41.3675 113.96 39.8875 113.96Z" fill="white"/>
    <path d="M61.8584 119V109.16C61.8584 105.84 63.8584 103.92 67.2584 103.92C67.9784 103.92 68.6584 104 69.2584 104.12V98.5199C68.6184 98.4399 68.0984 98.3999 67.6984 98.3999C64.9384 98.3999 62.7784 99.5599 61.8584 101.6V98.8399H55.8984V119H61.8584Z" fill="white"/>
    <path d="M80.3056 119V104.24H84.3456V98.8399H80.3056V97.9199C80.3056 96.1999 81.1456 95.5199 83.0656 95.5199C83.9056 95.5199 84.5056 95.5999 84.8656 95.7199V90.7599C84.0656 90.6399 83.2656 90.5599 82.4656 90.5599C79.9456 90.5599 78.0656 91.0399 76.9056 92.0399C75.3456 93.2799 74.5456 95.3599 74.5456 98.2799V98.8399H71.2256V104.24H74.5456V119H80.3056Z" fill="white"/>
    <path d="M85.6434 109.04C85.6434 112.2 86.6434 114.72 88.6834 116.64C90.7234 118.52 93.3634 119.48 96.6834 119.48C100.083 119.48 103.003 118.24 105.363 115.8L101.883 112.48C100.483 113.8 98.8434 114.44 96.9634 114.44C93.8034 114.44 91.7234 112.88 91.6034 110.48H106.843C106.883 109.88 106.923 109.24 106.923 108.56C106.923 105.64 105.963 103.24 104.043 101.28C102.123 99.3199 99.6434 98.3199 96.5634 98.3199C93.4034 98.3199 90.7634 99.2799 88.7234 101.24C86.6834 103.16 85.6434 105.72 85.6434 108.88V109.04ZM91.6834 106.6C91.8434 104.72 93.9634 103.24 96.5634 103.24C98.9634 103.24 100.923 104.72 100.923 106.6H91.6834Z" fill="white"/>
    <path d="M112.841 119L117.361 112.72L121.881 119H128.321L120.681 108.4L127.601 98.8399H121.121L117.361 104.16L113.601 98.8399H107.121L114.041 108.4L106.401 119H112.841Z" fill="white"/>
    <path d="M158.033 90.6799C153.833 90.6799 150.313 92.0399 147.393 94.7999C144.473 97.5599 143.033 100.96 143.033 105.08C143.033 109.2 144.473 112.6 147.393 115.36C150.313 118.08 153.833 119.44 158.033 119.44C162.473 119.44 166.513 117.52 169.353 114.2L165.153 110.64C163.273 112.76 160.913 113.84 158.033 113.84C155.513 113.84 153.433 113 151.713 111.36C150.033 109.68 149.193 107.6 149.193 105.08C149.193 102.56 150.033 100.48 151.753 98.7999C153.473 97.1199 155.553 96.2799 158.033 96.2799C160.873 96.2799 163.233 97.3199 165.113 99.4399L169.313 95.8799C166.473 92.6399 162.473 90.6799 158.033 90.6799Z" fill="white"/>
    <path d="M181.336 98.2399C178.216 98.2399 175.576 99.2799 173.376 101.36C171.216 103.4 170.136 105.92 170.136 108.92C170.136 111.92 171.216 114.44 173.376 116.52C175.576 118.56 178.216 119.6 181.336 119.6C184.416 119.6 187.056 118.56 189.256 116.52C191.456 114.44 192.536 111.92 192.536 108.92C192.536 105.92 191.456 103.4 189.256 101.36C187.056 99.2799 184.416 98.2399 181.336 98.2399ZM176.096 108.92C176.096 107.44 176.616 106.2 177.616 105.2C178.616 104.16 179.856 103.64 181.336 103.64C182.816 103.64 184.056 104.16 185.056 105.2C186.056 106.2 186.576 107.44 186.576 108.92C186.576 110.4 186.056 111.64 185.056 112.68C184.056 113.68 182.816 114.2 181.336 114.2C179.856 114.2 178.616 113.68 177.616 112.68C176.616 111.68 176.096 110.4 176.096 108.92Z" fill="white"/>
    <path d="M195.664 113.68C195.664 117.48 197.424 119.36 200.944 119.36C202.264 119.36 203.184 119.24 203.704 119.04V113.96C203.584 114 203.344 114.04 202.984 114.04C201.984 114.04 201.624 113.4 201.624 111.92V98.8399H195.664V113.68ZM195.224 93.7599C195.224 95.6399 196.744 97.1199 198.624 97.1199C200.504 97.1199 202.024 95.6399 202.024 93.7599C202.024 91.8399 200.504 90.3599 198.624 90.3599C196.744 90.3599 195.224 91.8399 195.224 93.7599Z" fill="white"/>
    <path d="M212.366 119V107.68C212.366 105.32 214.006 103.68 216.246 103.68C218.606 103.68 219.846 105.12 219.846 107.48V113.48C219.846 117.32 221.606 119.24 225.166 119.24C226.406 119.24 227.286 119.16 227.766 118.96V113.92L227.526 113.96H227.126C226.126 113.96 225.806 113.4 225.806 111.84V106.76C225.806 101.52 223.006 98.3999 218.166 98.3999C215.446 98.3999 213.206 99.5999 212.366 101.36V98.8399H206.406V119H212.366Z" fill="white"/>
    <defs>
        <linearGradient id="paint0_linear" x1="128.222" y1="0" x2="128.222" y2="2.03235e-07" gradientUnits="userSpaceOnUse">
            <stop stop-color="#FABE4C"/>
            <stop offset="1" stop-color="#FA9751"/>
        </linearGradient>
        <linearGradient id="paint1_linear" x1="137" y1="44.9862" x2="106.458" y2="44.9862" gradientUnits="userSpaceOnUse">
            <stop stop-color="#FABE4C"/>
            <stop offset="1" stop-color="#FA9751"/>
        </linearGradient>
        <linearGradient id="paint2_linear" x1="95.603" y1="28.8467" x2="95.603" y2="58.3291" gradientUnits="userSpaceOnUse">
            <stop stop-color="#FABE4C"/>
            <stop offset="1" stop-color="#FA9751"/>
        </linearGradient>
    </defs>
</svg>

<svg width="228" height="120" fill="none" xmlns="http://www.w3.org/2000/svg"><path fill-rule="evenodd" clip-rule="evenodd" d="M113 0l24 36-8.854 13.282-21.688-39.469L113 0z" fill="url(#paint0_linear)"/><path fill-rule="evenodd" clip-rule="evenodd" d="M99.27 20.596L137 36l-8.854 13.282L89 36l10.27-15.404z" fill="url(#paint1_linear)"/><path fill-rule="evenodd" clip-rule="evenodd" d="M113 72L89 36l10.27-15.405 23.028 37.458L113 72z" fill="url(#paint2_linear)"/><path d="M6.133 119v-17.8l13.8 17.8h5.04V91.12h-5.96v17.32L5.653 91.12H.173V119h5.96zm22.675-10.08c0 2.96.96 5.44 2.84 7.48 1.92 2 4.32 3 7.16 3 3.16 0 5.36-.96 6.68-2.92.28.84.88 1.56 1.8 2.16.84.48 1.96.72 3.28.72 1.16 0 2.04-.12 2.68-.32v-4.96c-.36.04-.72.08-1 .08-1.08 0-1.48-.64-1.48-2.24V98.84h-5.96v2.64c-.6-1.76-2.96-3-6-3-2.84 0-5.24 1-7.16 3.04-1.88 2-2.84 4.48-2.84 7.4zm11.08 5.04c-1.44 0-2.64-.48-3.64-1.44-1-1-1.48-2.2-1.48-3.6s.48-2.6 1.48-3.56c1-1 2.2-1.48 3.64-1.48 1.48 0 2.72.48 3.72 1.48 1.04.96 1.56 2.16 1.56 3.56s-.52 2.6-1.56 3.6c-1 .96-2.24 1.44-3.72 1.44zm21.97 5.04v-9.84c0-3.32 2-5.24 5.4-5.24.72 0 1.4.08 2 .2v-5.6c-.64-.08-1.16-.12-1.56-.12-2.76 0-4.92 1.16-5.84 3.2v-2.76h-5.96V119h5.96zm18.448 0v-14.76h4.04v-5.4h-4.04v-.92c0-1.72.84-2.4 2.76-2.4.84 0 1.44.08 1.8.2v-4.96c-.8-.12-1.6-.2-2.4-.2-2.52 0-4.4.48-5.56 1.48-1.56 1.24-2.36 3.32-2.36 6.24v.56h-3.32v5.4h3.32V119h5.76zm5.337-9.96c0 3.16 1 5.68 3.04 7.6 2.04 1.88 4.68 2.84 8 2.84 3.4 0 6.32-1.24 8.68-3.68l-3.48-3.32c-1.4 1.32-3.04 1.96-4.92 1.96-3.16 0-5.24-1.56-5.36-3.96h15.24c.04-.6.08-1.24.08-1.92 0-2.92-.96-5.32-2.88-7.28s-4.4-2.96-7.48-2.96c-3.16 0-5.8.96-7.84 2.92-2.04 1.92-3.08 4.48-3.08 7.64v.16zm6.04-2.44c.16-1.88 2.28-3.36 4.88-3.36 2.4 0 4.36 1.48 4.36 3.36h-9.24z" fill="#fff"/><path d="M112.841 119l4.52-6.28 4.52 6.28h6.44l-7.64-10.6 6.92-9.56h-6.48l-3.76 5.32-3.76-5.32h-6.48l6.92 9.56-7.64 10.6h6.44zm45.192-28.32c-4.2 0-7.72 1.36-10.64 4.12-2.92 2.76-4.36 6.16-4.36 10.28 0 4.12 1.44 7.52 4.36 10.28 2.92 2.72 6.44 4.08 10.64 4.08 4.44 0 8.48-1.92 11.32-5.24l-4.2-3.56c-1.88 2.12-4.24 3.2-7.12 3.2-2.52 0-4.6-.84-6.32-2.48-1.68-1.68-2.52-3.76-2.52-6.28 0-2.52.84-4.6 2.56-6.28 1.72-1.68 3.8-2.52 6.28-2.52 2.84 0 5.2 1.04 7.08 3.16l4.2-3.56c-2.84-3.24-6.84-5.2-11.28-5.2zm23.303 7.56c-3.12 0-5.76 1.04-7.96 3.12-2.16 2.04-3.24 4.56-3.24 7.56s1.08 5.52 3.24 7.6c2.2 2.04 4.84 3.08 7.96 3.08 3.08 0 5.72-1.04 7.92-3.08 2.2-2.08 3.28-4.6 3.28-7.6s-1.08-5.52-3.28-7.56c-2.2-2.08-4.84-3.12-7.92-3.12zm-5.24 10.68c0-1.48.52-2.72 1.52-3.72 1-1.04 2.24-1.56 3.72-1.56s2.72.52 3.72 1.56c1 1 1.52 2.24 1.52 3.72s-.52 2.72-1.52 3.76c-1 1-2.24 1.52-3.72 1.52s-2.72-.52-3.72-1.52-1.52-2.28-1.52-3.76zm19.568 4.76c0 3.8 1.76 5.68 5.28 5.68 1.32 0 2.24-.12 2.76-.32v-5.08c-.12.04-.36.08-.72.08-1 0-1.36-.64-1.36-2.12V98.84h-5.96v14.84zm-.44-19.92c0 1.88 1.52 3.36 3.4 3.36s3.4-1.48 3.4-3.36c0-1.92-1.52-3.4-3.4-3.4s-3.4 1.48-3.4 3.4zM212.366 119v-11.32c0-2.36 1.64-4 3.88-4 2.36 0 3.6 1.44 3.6 3.8v6c0 3.84 1.76 5.76 5.32 5.76 1.24 0 2.12-.08 2.6-.28v-5.04l-.24.04h-.4c-1 0-1.32-.56-1.32-2.12v-5.08c0-5.24-2.8-8.36-7.64-8.36-2.72 0-4.96 1.2-5.8 2.96v-2.52h-5.96V119h5.96z" fill="#fff"/><defs><linearGradient id="paint0_linear" x1="128.222" y1="0" x2="128.222" y2="0" gradientUnits="userSpaceOnUse"><stop stop-color="#FABE4C"/><stop offset="1" stop-color="#FA9751"/></linearGradient><linearGradient id="paint1_linear" x1="137" y1="44.986" x2="106.458" y2="44.986" gradientUnits="userSpaceOnUse"><stop stop-color="#FABE4C"/><stop offset="1" stop-color="#FA9751"/></linearGradient><linearGradient id="paint2_linear" x1="95.603" y1="28.847" x2="95.603" y2="58.329" gradientUnits="userSpaceOnUse"><stop stop-color="#FABE4C"/><stop offset="1" stop-color="#FA9751"/></linearGradient></defs></svg>
